res/skins/LateNight/buttons/btn_sync_sampler_overdown.svg

<?xml version="1.0" encoding="UTF-8" standalone="no"?>
<!-- Created with Inkscape (http://www.inkscape.org/) -->

<svg
   xmlns:dc="http://purl.org/dc/elements/1.1/"
   xmlns:cc="http://creativecommons.org/ns#"
   xmlns:rdf="http://www.w3.org/1999/02/22-rdf-syntax-ns#"
   xmlns:svg="http://www.w3.org/2000/svg"
   xmlns="http://www.w3.org/2000/svg"
   xmlns:xlink="http://www.w3.org/1999/xlink"
   xmlns:inkscape="http://www.inkscape.org/namespaces/inkscape"
   version="1.1"
   width="28"
   height="26"
   id="svg2">
  <defs
     id="defs4">
    <inkscape:path-effect
       effect="spiro"
       id="path-effect3950" />
    <inkscape:path-effect
       effect="spiro"
       id="path-effect3946" />
    <linearGradient
       id="linearGradient3801">
      <stop
         id="stop3803"
         style="stop-color:#242424;stop-opacity:1"
         offset="0" />
      <stop
         id="stop3805"
         style="stop-color:#101010;stop-opacity:1"
         offset="1" />
    </linearGradient>
    <linearGradient
       x1="13"
       y1="1027.3622"
       x2="13"
       y2="1049.3622"
       id="linearGradient3807-3"
       xlink:href="#linearGradient3801-6"
       gradientUnits="userSpaceOnUse"
       gradientTransform="translate(0,-1026.3622)" />
    <linearGradient
       id="linearGradient3801-6">
      <stop
         id="stop3803-7"
         style="stop-color:#242424;stop-opacity:1"
         offset="0" />
      <stop
         id="stop3805-5"
         style="stop-color:#101010;stop-opacity:1"
         offset="1" />
    </linearGradient>
    <linearGradient
       x1="13"
       y1="1027.3622"
       x2="13"
       y2="1049.3622"
       id="linearGradient3807-3-3"
       xlink:href="#linearGradient3801-6-5"
       gradientUnits="userSpaceOnUse"
       gradientTransform="translate(0,-1026.3622)" />
    <linearGradient
       id="linearGradient3801-6-5">
      <stop
         id="stop3803-7-6"
         style="stop-color:#222222;stop-opacity:1"
         offset="0" />
      <stop
         id="stop3805-5-2"
         style="stop-color:#131516;stop-opacity:1"
         offset="1" />
    </linearGradient>
    <linearGradient
       x1="15"
       y1="1049.3622"
       x2="15"
       y2="1027.3622"
       id="linearGradient3878"
       xlink:href="#linearGradient3801-6-5"
       gradientUnits="userSpaceOnUse"
       gradientTransform="translate(0,-1026.3622)" />
    <inkscape:path-effect
       effect="spiro"
       id="path-effect3946-1" />
    <inkscape:path-effect
       effect="spiro"
       id="path-effect3950-2" />
    <linearGradient
       x1="13"
       y1="1027.3622"
       x2="13"
       y2="1049.3622"
       id="linearGradient3807-3-7"
       xlink:href="#linearGradient3801-6-0"
       gradientUnits="userSpaceOnUse"
       gradientTransform="translate(0,-1026.3622)" />
    <linearGradient
       id="linearGradient3801-6-0">
      <stop
         id="stop3803-7-9"
         style="stop-color:#242424;stop-opacity:1"
         offset="0" />
      <stop
         id="stop3805-5-3"
         style="stop-color:#101010;stop-opacity:1"
         offset="1" />
    </linearGradient>
    <filter
       color-interpolation-filters="sRGB"
       id="filter4024">
      <feGaussianBlur
         id="feGaussianBlur4026"
         stdDeviation="3" />
    </filter>
    <filter
       color-interpolation-filters="sRGB"
       id="filter4068">
      <feGaussianBlur
         stdDeviation="0.984"
         id="feGaussianBlur4070" />
    </filter>
    <inkscape:path-effect
       effect="spiro"
       id="path-effect3950-2-5" />
    <inkscape:path-effect
       effect="spiro"
       id="path-effect3946-1-1" />
    <inkscape:path-effect
       effect="spiro"
       id="path-effect3950-2-5-2" />
    <inkscape:path-effect
       effect="spiro"
       id="path-effect3946-1-1-0" />
    <inkscape:path-effect
       effect="spiro"
       id="path-effect3950-2-5-2-7" />
    <inkscape:path-effect
       effect="spiro"
       id="path-effect3946-1-1-0-4" />
    <inkscape:path-effect
       effect="spiro"
       id="path-effect3950-2-9" />
    <inkscape:path-effect
       effect="spiro"
       id="path-effect3946-1-2" />
    <linearGradient
       x1="13"
       y1="1027.3622"
       x2="13"
       y2="1049.3622"
       id="linearGradient3807-3-5"
       xlink:href="#linearGradient3801-6-9"
       gradientUnits="userSpaceOnUse"
       gradientTransform="translate(0,-1026.3622)" />
    <linearGradient
       id="linearGradient3801-6-9">
      <stop
         id="stop3803-7-1"
         style="stop-color:#ce0e0e;stop-opacity:1"
         offset="0" />
      <stop
         id="stop4329"
         style="stop-color:#dd0000;stop-opacity:1"
         offset="0.28" />
      <stop
         id="stop3805-5-28"
         style="stop-color:#8d0000;stop-opacity:1"
         offset="1" />
    </linearGradient>
    <inkscape:path-effect
       effect="spiro"
       id="path-effect3950-2-9-0" />
    <inkscape:path-effect
       effect="spiro"
       id="path-effect3946-1-2-6" />
    <linearGradient
       x1="15"
       y1="1049.3622"
       x2="15"
       y2="1027.3622"
       id="linearGradient4308-4"
       xlink:href="#linearGradient3801-6-9-0"
       gradientUnits="userSpaceOnUse"
       gradientTransform="translate(0,-1026.3622)" />
    <linearGradient
       id="linearGradient3801-6-9-0">
      <stop
         id="stop3803-7-1-9"
         style="stop-color:#aa1112;stop-opacity:1"
         offset="0" />
      <stop
         id="stop4329-4"
         style="stop-color:#b60607;stop-opacity:1"
         offset="0.28" />
      <stop
         id="stop3805-5-28-5"
         style="stop-color:#760607;stop-opacity:1"
         offset="1" />
    </linearGradient>
    <linearGradient
       x1="15"
       y1="1049.3622"
       x2="15"
       y2="1027.3622"
       id="linearGradient4370"
       xlink:href="#linearGradient3801-6-9-0"
       gradientUnits="userSpaceOnUse"
       gradientTransform="translate(0,-1026.3622)" />
    <linearGradient
       x1="15"
       y1="1049.3622"
       x2="15"
       y2="1027.3622"
       id="linearGradient4308-3"
       xlink:href="#linearGradient3801-6-9-9"
       gradientUnits="userSpaceOnUse"
       gradientTransform="translate(0,-1026.3622)" />
    <linearGradient
       id="linearGradient3801-6-9-9">
      <stop
         id="stop3803-7-1-95"
         style="stop-color:#ce0e0e;stop-opacity:1"
         offset="0" />
      <stop
         id="stop4329-2"
         style="stop-color:#dd0000;stop-opacity:1"
         offset="0.28" />
      <stop
         id="stop3805-5-28-1"
         style="stop-color:#8d0000;stop-opacity:1"
         offset="1" />
    </linearGradient>
    <linearGradient
       x1="11"
       y1="1027.3622"
       x2="11"
       y2="1049.3622"
       id="linearGradient4650"
       xlink:href="#linearGradient3801-6-9-9"
       gradientUnits="userSpaceOnUse"
       gradientTransform="translate(0,-1026.3622)" />
    <filter
       color-interpolation-filters="sRGB"
       id="filter4068-1-1">
      <feGaussianBlur
         stdDeviation="0.984"
         id="feGaussianBlur4070-3-3" />
    </filter>
    <linearGradient
       x1="15"
       y1="1049.3622"
       x2="15"
       y2="1027.3622"
       id="linearGradient12758"
       xlink:href="#linearGradient3801-6-9-0"
       gradientUnits="userSpaceOnUse"
       gradientTransform="translate(2,-1026.3622)" />
  </defs>
  <metadata
     id="metadata7">
    <rdf:RDF>
      <cc:Work
         rdf:about="">
        <dc:format>image/svg+xml</dc:format>
        <dc:type
           rdf:resource="http://purl.org/dc/dcmitype/StillImage" />
        <dc:title></dc:title>
      </cc:Work>
    </rdf:RDF>
  </metadata>
  <g
     id="layer3"
     style="display:none">
    <rect
       width="23"
       height="23.000017"
       rx="2"
       ry="2"
       x="0.5"
       y="0.49998301"
       id="rect3029-9"
       style="color:#000000;fill:url(#linearGradient3878);fill-opacity:1;fill-rule:nonzero;stroke:none;stroke-width:1;marker:none;visibility:visible;display:inline;overflow:visible;enable-background:accumulate" />
    <g
       id="layer7">
      <path
         d="m 10,9.000017 3,0 0,6 -2,0 0,-5 -1,0 0,-1"
         id="path3944-9"
         style="fill:#8d8f90;fill-opacity:1;stroke:none;display:inline" />
      <path
         d="m 13,10.000017 1,0 0,6 -2,0 0,-1 1,0 0,-5"
         id="path3948-7"
         style="fill:#080808;fill-opacity:1;stroke:none;display:inline" />
      <image
         xlink:href="data:image/png;base64,iVBORw0KGgoAAAANSUhEUgAAABoAAAAaCAYAAACpSkzOAAAABHNCSVQICAgIfAhkiAAAAgNJREFU SIm9lrFuFDEQhr+JVlSEiJIqQehSBUpS8RD0dLxCqFKClAjuFejyAnmEKFUoAx0paKKtwoFC7Z/C 412v13unSLlYt2vfzHj++cczvrOd5y8+zXZnh6xh/Lj8/rVtrz8CbTPbnR1e/bxaBw57r16+b9vr S+B0Yy0Iw/EG2G4AhO6002DJjpH2KbAZgZJcbtcZWiajMxqCuFICMyAM5T4cKFOqdCP8U0Sb1sKw CD/YO/TjQAIZWIjblKIWZhbXAjMhCUtEXRFMrncsK/kkoBASDhiELmgDhT7mEONR8KBkGUkhWQSX kFVSF5yRUq6zvPfc/C33nGgOMpRZF9XSp47p/CJx8OGg+zqfzweWZZpqPjYAFIRETE16FAOIOvHl c+988fsmyoPA5/iQzTVGo4pJAU13TL33VMwl0GT3TaSzEteq0bAMKRGqEVu1pwZU6/Wudzqf/ZGL vhpHfidS3tQiDO7TZO7SMBNHx8fc/v3TgVl2Y8j6/SaNStEbtlB4xciyvvBm3nyy1UXuvYk5Yrru alltOrblWRTsO5tcl66aomZUyvA+GlqU6xxKGWrGaiCqF0l/RsvojEapK++GiT6q1O4dQFbZx/EQ P+UPC9R8u7g4eb2//24dzs/Pzm6ABXBrwDbwlvhvZeuesRbAOXBqwCPgGbADPL5noH/AL6D9DzPs MfDmH7ZEAAAAAElFTkSuQmCC "
         x="31"
         y="3"
         width="26"
         height="26"
         id="image4127"
         style="display:inline" />
    </g>
    <path
       d="M 2,0 C 0.90064862,0 0,0.90064862 0,2 l 0,20 c 0,1.099351 0.90064862,2 2,2 l 20,0 c 1.099351,0 2,-0.900649 2,-2 L 24,2 C 24,0.90064862 23.099351,0 22,0 z M 2.3,1 21.7,1 C 22.262649,1 23,1.7373514 23,2.3 l 0,19.4 C 23,22.262649 22.262649,23 21.7,23 L 2.3,23 C 1.7373514,23 1,22.262649 1,21.7 L 1,2.3 C 1,1.7373514 1.7373514,1 2.3,1 z"
       id="rect3029-96-0-9"
       style="font-size:medium;font-style:normal;font-variant:normal;font-weight:normal;font-stretch:normal;text-indent:0;text-align:start;text-decoration:none;line-height:normal;letter-spacing:normal;word-spacing:normal;text-transform:none;direction:ltr;block-progression:tb;writing-mode:lr-tb;text-anchor:start;baseline-shift:baseline;color:#000000;fill:#454748;fill-opacity:1;fill-rule:nonzero;stroke:none;stroke-width:1;marker:none;visibility:visible;display:inline;overflow:visible;enable-background:accumulate;font-family:Sans;-inkscape-font-specification:Sans" />
  </g>
  <g
     id="layer2"
     style="display:none">
    <rect
       width="24"
       height="24"
       rx="2"
       ry="2"
       x="2"
       y="2"
       id="rect3029-6"
       style="color:#000000;fill:#060606;fill-opacity:1;fill-rule:nonzero;stroke:none;stroke-width:1;marker:none;visibility:visible;display:inline;overflow:visible;filter:url(#filter4068);enable-background:accumulate" />
    <rect
       width="23"
       height="23.000017"
       rx="2"
       ry="2"
       x="0.5"
       y="0.49998301"
       id="rect3029"
       style="color:#000000;fill:url(#linearGradient3807-3);fill-opacity:1;fill-rule:nonzero;stroke:none;stroke-width:1;marker:none;visibility:visible;display:inline;overflow:visible;enable-background:accumulate" />
    <image
       xlink:href="data:image/png;base64,iVBORw0KGgoAAAANSUhEUgAAABoAAAAaCAYAAACpSkzOAAAABHNCSVQICAgIfAhkiAAAAjpJREFU SIm9lr1uE1EQhb8TIoGE+X2F9Igi7nmAiCYUVjoa3okXiFxFIOgo07oJ75CWCAUKUsyhmPuza68R iDhXtta7d2bOPfNz1jo4OHg9n88/soN1fn7+9vLy8gNwrcVi4dVqtQscDg8PWS6Xr4CLvZ0gjNcL 4Nk+gO2/9hKwzXrL3hPgwT5A2Ii0skAGYyTyQY2CCdRsUR6y2sXYdLSSUQRtz8Ilim3qXQIa2i64 gancuHw2uSWjAoQGAaXmKIQJUAXIJxaouFoFzBlI00DOIFF5GaOGFcVJMlFYyD2U8jR4eCg0kTpH Ht61JEaIKPY15yEngEAOUE1vYYWQnID6U+oGRXRJG8rL6elpMzk5OSl189Alvar/WjPsVUYRJuo1 TNiYICIIm8Vi0Zyurq7S1oEjfVy/NhGBY1uNKoNOqZ90Ys6Ggdw6UW0mPdUM/zKw1d4badsM/t9A 6bMO09eUQmwCVavhTE0BEcVOZdY6Q7dAa0DduQyoKQpRuzGn4/j4DT9+XqdEVfxwzlcNvCU7XYKk KjyEhYoSVIouZ509nOWZi0/BSkZ2ezYpQS4SkF0DyCP9GicwRbQNdm/SlFt7MuNtjnCqeGXf6+Yu YYN7gsEIVL/CO7Y0Q4s+0KuhEkvltzR6hfRyFJGtdVJnOgbamNW16Wjk+s645u7MBqncSN1drDsD 0mw2e3d0dPR+F8HPzs6+3NzcfAI+C3gKvCT/rTy+ZazvwFfgQsA94BHwHLh/y0C/gG/A9W9U7JOh gi8h8gAAAABJRU5ErkJggg== "
       x="31.893093"
       y="1.061859"
       width="26"
       height="26"
       id="image2993" />
    <g
       id="layer6">
      <path
         d="m 10,9.000017 3,0 0,6 -2,0 0,-5 -1,0 0,-1"
         id="path3944"
         style="fill:#bfbfbf;fill-opacity:1;stroke:none;display:inline" />
      <path
         d="m 13,10.000017 1,0 0,6 -2,0 0,-1 1,0 0,-5"
         id="path3948"
         style="fill:#060606;fill-opacity:1;stroke:none;display:inline" />
    </g>
    <path
       d="M 2,0 C 0.90064862,0 0,0.90064862 0,2 l 0,20 c 0,1.099351 0.90064862,2 2,2 l 20,0 c 1.099351,0 2,-0.900649 2,-2 L 24,2 C 24,0.90064862 23.099351,0 22,0 z M 2.3,1 21.7,1 C 22.262649,1 23,1.7373514 23,2.3 l 0,19.4 C 23,22.262649 22.262649,23 21.7,23 L 2.3,23 C 1.7373514,23 1,22.262649 1,21.7 L 1,2.3 C 1,1.7373514 1.7373514,1 2.3,1 z"
       id="rect3029-96-0"
       style="font-size:medium;font-style:normal;font-variant:normal;font-weight:normal;font-stretch:normal;text-indent:0;text-align:start;text-decoration:none;line-height:normal;letter-spacing:normal;word-spacing:normal;text-transform:none;direction:ltr;block-progression:tb;writing-mode:lr-tb;text-anchor:start;baseline-shift:baseline;color:#000000;fill:#585858;fill-opacity:1;fill-rule:nonzero;stroke:none;stroke-width:1;marker:none;visibility:visible;display:inline;overflow:visible;enable-background:accumulate;font-family:Sans;-inkscape-font-specification:Sans" />
  </g>
  <rect
     width="23"
     height="23.000017"
     rx="1.5"
     ry="1.5"
     x="2.5"
     y="0.49998307"
     id="rect3029-96-4"
     style="color:#000000;fill:url(#linearGradient12758);fill-opacity:1;fill-rule:nonzero;stroke:none;stroke-width:1;marker:none;visibility:visible;display:inline;overflow:visible;enable-background:accumulate" />
  <path
     d="M 4,0 C 2.9006486,0 2,0.9006486 2,2 l 0,20 c 0,1.099351 0.9006486,2 2,2 l 20,0 c 1.099351,0 2,-0.900649 2,-2 L 26,2 C 26,0.9006486 25.099351,0 24,0 z M 4.3,1 23.7,1 C 24.262649,1 25,1.7373514 25,2.3 l 0,19.4 C 25,22.262649 24.262649,23 23.7,23 L 4.3,23 C 3.7373514,23 3,22.262649 3,21.7 L 3,2.3 C 3,1.7373514 3.7373514,1 4.3,1 z"
     id="rect3029-96-9"
     style="font-size:medium;font-style:normal;font-variant:normal;font-weight:normal;font-stretch:normal;text-indent:0;text-align:start;text-decoration:none;line-height:normal;letter-spacing:normal;word-spacing:normal;text-transform:none;direction:ltr;block-progression:tb;writing-mode:lr-tb;text-anchor:start;baseline-shift:baseline;color:#000000;fill:#979797;fill-opacity:1;fill-rule:nonzero;stroke:none;stroke-width:1;marker:none;visibility:visible;display:inline;overflow:visible;enable-background:accumulate;font-family:Sans;-inkscape-font-specification:Sans" />
  <g
     id="layer4"
     style="display:none">
    <rect
       width="24"
       height="24"
       rx="2"
       ry="2"
       x="2"
       y="2"
       id="rect3029-6-1"
       style="color:#000000;fill:#060606;fill-opacity:1;fill-rule:nonzero;stroke:none;stroke-width:1;marker:none;visibility:visible;display:inline;overflow:visible;filter:url(#filter4068-1-1);enable-background:accumulate" />
    <image
       xlink:href="data:image/png;base64,iVBORw0KGgoAAAANSUhEUgAAABoAAAAaCAYAAACpSkzOAAAABHNCSVQICAgIfAhkiAAAAQVJREFU SInd1rEKgkAcx/GvZhEh1NocOEpbq/Qe7fUEjc09QAQ+QU8hNtZQe3tEUw1BkGYNXmE15Fkn1B/k bvn74Xf8OdUmvd5+Z9tVFJS5XB46rtsENsbOtqutfl+Fw2w4NIE24BkAxSBQAomygEUMhaFKyAD0 PBLdNdQzfwud8oLSJDr7/n1fcBxpSL9B754o8fJByp5kSR1dWayRRM8DlHYYkpDsAGWaukteUOZE aW+6teMwEnvZ29EAOEs0dMUq05MJylpSR/cx9POJCs+QqkQvkKpEpSR0nM8PlfHYVAFtp9OAOEek AQ3iXyILkfCLFQIrwNOAClAHaojPxhcrAvbA5gof+Fm+AyRNhgAAAABJRU5ErkJggg== "
       x="28"
       y="0"
       width="26"
       height="26"
       id="image3015" />
    <rect
       width="23"
       height="23.000017"
       rx="1.5"
       ry="1.5"
       x="0.5"
       y="0.49998301"
       id="rect3029-96-3"
       style="color:#000000;fill:url(#linearGradient4650);fill-opacity:1;fill-rule:nonzero;stroke:none;stroke-width:1;marker:none;visibility:visible;display:inline;overflow:visible;enable-background:accumulate" />
    <path
       d="M 2,0 C 0.90064862,0 0,0.90064862 0,2 l 0,20 c 0,1.099351 0.90064862,2 2,2 l 20,0 c 1.099351,0 2,-0.900649 2,-2 L 24,2 C 24,0.90064862 23.099351,0 22,0 z M 2.3,1 21.7,1 C 22.262649,1 23,1.7373514 23,2.3 l 0,19.4 C 23,22.262649 22.262649,23 21.7,23 L 2.3,23 C 1.7373514,23 1,22.262649 1,21.7 L 1,2.3 C 1,1.7373514 1.7373514,1 2.3,1 z"
       id="rect3029-96"
       style="font-size:medium;font-style:normal;font-variant:normal;font-weight:normal;font-stretch:normal;text-indent:0;text-align:start;text-decoration:none;line-height:normal;letter-spacing:normal;word-spacing:normal;text-transform:none;direction:ltr;block-progression:tb;writing-mode:lr-tb;text-anchor:start;baseline-shift:baseline;color:#000000;fill:#979797;fill-opacity:1;fill-rule:nonzero;stroke:none;stroke-width:1;marker:none;visibility:visible;display:inline;overflow:visible;enable-background:accumulate;font-family:Sans;-inkscape-font-specification:Sans" />
    <g
       id="layer8"
       style="display:inline">
      <path
         d="m 10,9.000017 3,0 0,6 -2,0 0,-5 -1,0 0,-1"
         id="path3944-4"
         style="fill:#bfbfbf;fill-opacity:1;stroke:none;display:inline" />
      <path
         d="m 13,10.000017 1,0 0,6 -2,0 0,-1 1,0 0,-5"
         id="path3948-4"
         style="fill:#3d0000;fill-opacity:1;stroke:none;display:inline" />
    </g>
  </g>
  <g
     transform="translate(2,0)"
     id="g4992"
     style="fill:#320202;fill-opacity:1">
    <path
       d="M 6,8.3635562 12.955,13.000278 6,17.637 6,8.3635562"
       id="path3936-0-8-9-7-5"
       style="fill:#320202;fill-opacity:1;stroke:none;display:inline" />
    <path
       d="M 21,8.363556 14.045,13.000278 21,17.637 21,8.363556"
       id="path3936-0-8-9-7-3-3"
       style="fill:#320202;fill-opacity:1;stroke:none;display:inline" />
  </g>
  <path
     d="M 7,7.3635562 13.955,12.000278 7,16.637 7,7.3635562"
     id="path3936-0-8-9-7"
     style="fill:#8d8f90;fill-opacity:1;stroke:none;display:inline" />
  <path
     d="M 22,7.363556 15.045,12.000278 22,16.637 22,7.363556"
     id="path3936-0-8-9-7-3"
     style="fill:#8d8f90;fill-opacity:1;stroke:none;display:inline" />
</svg>

<svg id="svg2" width="28" height="26" version="1.1" xmlns="http://www.w3.org/2000/svg"><defs id="defs4"><linearGradient id="linearGradient12758" x1="15" x2="15" y1="1049.4" y2="1027.4" gradientTransform="translate(2 -1026.4)" gradientUnits="userSpaceOnUse"><stop id="stop3803-7-1-9" stop-color="#aa1112" offset="0"/><stop id="stop4329-4" stop-color="#b60607" offset=".28"/><stop id="stop3805-5-28-5" stop-color="#760607" offset="1"/></linearGradient></defs><rect id="rect3029-96-4" x="2.5" y=".49998" width="23" height="23" rx="1.5" ry="1.5" color="#000000" fill="url(#linearGradient12758)"/><path id="rect3029-96-9" d="m4 0c-1.0994 0-2 0.90065-2 2v20c0 1.0994 0.90065 2 2 2h20c1.0994 0 2-0.90065 2-2v-20c0-1.0994-0.90065-2-2-2zm0.3 1h19.4c0.56265 0 1.3 0.73735 1.3 1.3v19.4c0 0.56265-0.73735 1.3-1.3 1.3h-19.4c-0.56265 0-1.3-0.73735-1.3-1.3v-19.4c0-0.56265 0.73735-1.3 1.3-1.3z" color="#000000" fill="#979797" style="block-progression:tb;text-indent:0;text-transform:none"/><g id="g4992" transform="translate(2)" fill="#320202"><path id="path3936-0-8-9-7-5" d="m6 8.3636 6.955 4.6367-6.955 4.6367v-9.2734"/><path id="path3936-0-8-9-7-3-3" d="m21 8.3636-6.955 4.6367 6.955 4.6367v-9.2734"/></g><path id="path3936-0-8-9-7" d="m7 7.3636 6.955 4.6367-6.955 4.6367v-9.2734" fill="#8d8f90"/><path id="path3936-0-8-9-7-3" d="m22 7.3636-6.955 4.6367 6.955 4.6367v-9.2734" fill="#8d8f90"/></svg>
